X: 100029
M: C|
L: 1/8
K: A
uE |\
uc |\
(.e>.f)(a>c) (.B>.A)(B>c) | (.e>.f)(a>e) f<ff>a | (.e>.a)(e>c) (.B>.A)(B>c) | (.A>.F)(E>F) A<AA>f |
(.e>.f)(a>c) (.B>.A)(B>c) | (.e>.f)(a>e) f<f(f>a) | (e<a) (c<a) (B>A)B>c | A>F(E>F) A<A "^D.C.""_Segue Reel."A |]


